X:19
T: Die wiedergefundene Schwester (Suedeli - Ballade)
N: Q0072R
O: Mitteleuropa, Deutschland / Frankreich, Lothringen
N: Textlose Uebertragung einer Phonogrammaufnahme.
R: Ballade, Entfuehrung, Adelige als Dienstmagd, Rueckkehr
M: 3/4
L: 1/8
K: F
C2 | F3EF2 | G2F2G2 | A3GAG | F4
FA | c3dc2 | A2G2c2 | A4
A2 | A2G2A2 | A3Bcd | c3BA2 | G4z2
F4A2 | G6 | A2c2A2 | G2F2G2 | F4

